!!!SOCIAL_FUNCTION:	isleta
!!!PDT:	1957
!!!OTL: No_56_Song_of_Fortynine_Dance_(c).krn
!!!LING_GROUP: Keresan
!!!LANG: Tone
!!!REG: Southwest
**kern
*staff1
=1-
*clefF4
*k[f#c#g#d#]
*M3/4
2E\
8E\
8r
=2!|:
*M2/4
12e\L
12e\
12e\J
8B\L
8B\J
=3
*M3/4
2e\
4r
=4
12e\L
12e\
12e\J
8B\L
8c#\J
8F#\L
8G#\J
=5
*M3/8
4E\
16F#\LL
16F#\JJ
=6
*M3/4
4..G#\
16F#\
16F#\LL
16F#\
16E\JJ
16r
=7
2E\
8E\
8r
=8
*M2/4
12e\L
12e\
12e\J
8B\L
8B\J
=9
*M3/4
2e\
4r
=10
12e\L
12e\
12e\J
8B\L
8c#\J
8F#\L
8G#\J
=11
*M3/8
4E\
16F#\LL
16F#\JJ
=12
*M3/4
(4..G#\
16F#\)
16F#\LL
16F#\
16E\JJ
16r
=13
2E\
8E\
8r
=14
8G#\L
8G#\J
8F#\L
[8E\J
8E\L]
16E\L
16E\JJ
=15
(4..G#\
16F#\)
16F#\LL
16F#\
16E\JJ
16r
=16
2E\
8E\
8r
=17
8G#\L
8G#\J
8F#\L
[8E\J
8E\L]
16F#\L
16F#\JJ
=18
(4..G#\
16F#\)
16F#\LL
16F#\
16E\JJ
16r
=19
2E\
8E\
8r
=20
*M2/4
12E\L
12E\
12E\J
8BB/L
8F#/J
=21
4E\
8BB/L
8BB/J
=22
=
4BB/
8BB/
8r
=23
*M3/4
2BB/
8BB/
8r
=24:|!
*M3/4
2BB/
8BB/
8r
==
*-
